svg/fluentui-system-icons/ic_fluent_tent_16_regular.svg

<svg width="16" height="16" viewBox="0 0 16 16" fill="none" xmlns="http://www.w3.org/2000/svg">
<path d="M8.40538 1.35276C8.31038 1.23876 8.16966 1.17285 8.02127 1.17285C7.87288 1.17285 7.73216 1.23876 7.63716 1.35276C6.59589 2.60229 4.53481 4.09055 3.34928 4.75274C3.21232 4.82924 3.1192 4.9656 3.09779 5.12102L2.15003 12H1.48633C1.21019 12 0.986328 12.2239 0.986328 12.5C0.986328 12.7761 1.21019 13 1.48633 13H4.95796L4.96869 13.0001H11.0175L11.0283 13H14.5C14.7761 13 15 12.7761 15 12.5C15 12.2239 14.7761 12 14.5 12H13.8925L12.9448 5.12102C12.9233 4.9656 12.8302 4.82924 12.6933 4.75274C11.5077 4.09055 9.44666 2.60229 8.40538 1.35276ZM11.2748 11.9999C10.0977 10.3326 9.25864 8.70515 8.48521 5.73344C8.42779 5.51282 8.22841 5.35898 8.00045 5.35938C7.77248 5.35978 7.57365 5.51432 7.51701 5.73514C6.66128 9.07107 5.65003 10.7376 4.71821 11.9999H3.15949L4.05491 5.50076C5.18481 4.83701 6.89524 3.60333 8.02127 2.42205C9.14731 3.60333 10.8577 4.83701 11.9876 5.50076L12.8831 11.9999H11.2748ZM10.0636 11.9999H5.94371C6.63967 10.9728 7.35324 9.66208 8.00276 7.65813C8.59223 9.47309 9.24889 10.7656 10.0636 11.9999Z" fill="#212121"/>
</svg>

<svg xmlns="http://www.w3.org/2000/svg" width="16" height="16"><path d="M8.405 1.353a.5.5 0 0 0-.768 0c-1.041 1.25-3.102 2.738-4.288 3.4a.5.5 0 0 0-.251.368L2.15 12h-.664a.5.5 0 0 0 0 1H14.5a.5.5 0 0 0 0-1h-.607l-.948-6.879a.5.5 0 0 0-.252-.368c-1.185-.662-3.246-2.15-4.288-3.4ZM11.275 12c-1.177-1.667-2.016-3.295-2.79-6.267a.5.5 0 0 0-.968.002C6.661 9.071 5.65 10.738 4.718 12H3.16l.896-6.5c1.13-.663 2.84-1.897 3.966-3.078 1.126 1.181 2.837 2.415 3.967 3.079L12.883 12h-1.608Zm-1.211 0h-4.12c.696-1.027 1.41-2.338 2.059-4.342.59 1.815 1.246 3.108 2.06 4.342Z"/></svg>
